X: 11
T: Rose In The Heather, The
Z: Paul
S: https://thesession.org/tunes/447#setting53198
R: jig
M: 6/8
L: 1/8
K: Dmaj
|:F3 E3|DFA BAF|ABd ede|fdB AFE|
F3 E3|DFA BAF|AdB AFE|1 FDD D3:|2 FDD D2 e||
|:fdB ABd|faa afd|g3 fed|Bee efg|
fdB ABd|f3 afa|baf gfe|1 fdc d2 e:|2 fdc d3||

